X:2263 
T:Stroeyd Ushtey -The wastrell
T:(Yn Stroiltagh) 
T:T Crellin, Peel
C:Traditional
O:Isle of Man
N:Titled Yn MacStroialtagh in Journal of Folk Song Society (number not given)
Z:Clague collection
B:Kiaull Vannin #263 
M:2/4 
L:1/8 
Q:80 
K:G 
G|c2 BA|G2 FG|AGGG|G3G|Bddd|efge|eddd|d3B| 
dddd|ef ge|dddc|BG zA|cccc|dddB|GGGG|G3|| 

